X:1
T:Trepak
T:Trepak
T:Pyotr I. Tchaikovsky/ Arr. George Luft
C:Pyotr I. Tchaikovsky/ Arr. George Luft
%%score 1 2 3 4
L:1/8
Q:1/4=160
M:2/4
K:Ab
V:1 bass nm="Baritone 1" snm="Bar. 1"
V:2 bass nm="Baritone 2" snm="Bar. 2"
V:3 bass nm="Tuba 1" snm="Tba. 1"
V:4 bass nm="Tuba 2" snm="Tba. 2"
V:1
!f! !>!A(A/G/ .A).A | .F.E (!>!D.F) | !>!E(E/=D/ .E).E | .C.B, .A,.C | !>!B,2 !>!A,2 | %5
 !>!G,2 !>!B,2 | !>!C2 !>!A,2 | .B,.A, (!>!EF/G/ |"^9" A)(A/G/ .A).A | .F.E (!>!D.F) | %10
 !>!E(E/=D/ .E).E | .C.B, .A,.C | !>!B,2 !>!A,2 | !>!G,2 !>!B,2 | !>!C2 !>!B,2 |1 %15
 .A, z z/!ff! (E/F/G/) :|2 .A,.F, .A, z ||!mf!"^18" .E.E .E.E | .F.F .F.F | .F.F .F.F | .G.G .G.G | %21
 .A.A .G.G | .F.F .E.E |!mf! .=D.D .C.C | .B,.B, .=D.D |!mf! .E.E .E.E | .F.F .F.F | .F.F .F.F | %28
 .G.G .G.G | .A.A .G.G | .F.F .E.E | .=D.D .C.C | .B,.B, .B,!ff!!^!B, | %33
"^34" !^!D!mf!(A,/G,/ A,)(=D/^C/ | =D)(E/=D/ E)!ff!!^!B, | !^!D!mf!(A,/G,/ A,)(=D/^C/ | %36
 =D)(E/=D/ E)!ff!!>!B, | !>!D!mf!(A,/G,/ A,)!ff!!>!B, | !>!D!mf!(A,/G,/ A,)!ff!.B, | .D.B, .D.B, | %40
 .D.B, !>!E(3(E/F/G/ |!ff!"^42" !>!A)(A/G/ .A).A | .F.E (!>!D.F) | !>!E(E/=D/ .E).E | .C.B, .A,.C | %45
 !>!B,2 !>!A,2 | !>!G,2 !>!B,2 | !>!C2 !>!A,2 | .B,.A, (!>!EF/G/ | A)(A/G/ .A).A | .F.E (!>!D.F) | %51
 !>!E(E/=D/ .E).E | .C.B, .A,.C | !>!B,2 !>!A,2 | !>!G,2 !>!B,2 | !>!C2 !>!B,2 | !>!A,2 !>!C2 | %57
!fff!"^58"[Q:1/4=168] .E/.E/.E .E/.E/.E | .E/.E/.E .E/.E/.E | .E/.E/.E .E/.E/.E | %60
 .E/.E/.E .E/.E/.E | .E/.E/.E .E/.E/.E | .E/.E/.E .E/.E/.E | .E/.E/.E .E/.E/.E | %64
 .E/.E/.E .E/.E/.E |[Q:1/4=172] !>!E>E !>!E>E | !>!E>E !>!E>E | !>!E>E !>!E>E | .E.E !>!A z |] %69
V:2
!f! !>!C z z2 | .D.C (!>!B,.D) | !>!C z z2 | .=D,._D, .C,.A, | !>!G,2 !>!F,2 | !>!E,2 !>!G,2 | %6
 !>!A,2 !>!F,2 | .G,.F, !>!G, z | !>!C z z2 | .D.C (!>!B,.D) | !>!C z z2 | .=D,._D, .C,.A, | %12
 !>!G,2 !>!F,2 | !>!E,2 !>!G,2 | !>!A,2 !>!G,2 |1 .E,.F, .E, z :|2 .E,.F, .E, z || %17
!mf! .B,.B, .B,.B, | .C.C .C.C | .=D.D .D.D | .=D.D .E.E | .E.E .=D.D | .C.C .C.C | %23
!mf! .A,.A, .A,.A, | .B,.B, .A,.A, |!mf! .B,.B, .B,.B, | .C.C .C.C | .=D.D .D.D | .=D.D .E.E | %29
 .E.E .=D.D | .C.C .C.C | .A,.A, .A,.A, | .A,.A, .G,!ff!!^!G, | !^!A,!mf! !>!=D,2 !>!A,- | %34
 A, !>!B,2!ff! !^!G, | !^!A,!mf! !>!=D,2 !>!A,- | A, !>!B,2!ff! !>!G, | !>!A,!mf! D,2!ff! !>!G, | %38
 !>!A,!mf! D,2!ff! .G, | .A,.G, .A,.G, | .A,.G, !>!B, z |!ff! !>!C(A,/G,/ .A,).A, | %42
 .D.C (!>!B,.D) | !>!C z z2 | .=D,._D, .C,.A, | !>!G,2 !>!F,2 | !>!E,2 !>!G,2 | !>!A,2 !>!F,2 | %48
 .G,.F, !>!G, z | !>!C(A,/G,/ .A,).A, | .D.C (!>!B,.D) | !>!C z z2 | .=D,._D, .C,.A, | %53
 !>!G,2 !>!F,2 | !>!E,2 !>!G,2 | !>!A,2 !>!G,2 | !>!F,2 !>!A,2 |!fff! !>!D2 !>!C2 | !>!B,2 !>!D2 | %59
 !>!E2 !>!D2 | !>!C2 !>!E2 | !>!D2 !>!B,2 | !>!A,2 !>!C2 | !>!D2 !>!B,2 | !>!A,2 !>!C2 | %65
 !>!D2 !>!C2 | !>!D2 !>!C2 | !>!D2 !>!C2 | .D.D !>!C z |] %69
V:3
!f! !>!E, z z2 | z4 | !>!A, z z2 | .A,,.B,, .C,.E,, | z E,, z E,, | z E,, z E,, | z E,, z E,, | %7
 z .E,, !>!E,, z | !>!E, z z2 | z4 | !>!A, z z2 | .A,,.B,, .C,.E,, | z E,, z E,, | z E,, z E,, | %14
 z E,, z E,, |1 z .A,, .C, z :|2 z .A,, .C, z ||!mf! .G,.G, .G,.G, | .A,.A, .A,.A, | %19
 .B,.B, .B,.B, | .B,.B, .C.C | .C.C .B,.B, | .A,.A, .G,.G, |!ff! (F,/C,/=D,/E,/ F,/=E,/F,/^F,/ | %24
 .G,)(!>!G,/E,/) !>!B,,2 |!mf! .G,.G, .G,.G, | .A,.A, .A,.A, | .B,.B, .B,.B, | .B,.B, .C.C | %29
 .C.C .B,.B, | .A,.A, .G,.G, | .F,.F, .F,.F, | .F,.F, .E,!ff!!^!E,, | %33
 !^!=E,,!mf! !>!E,,2 !>!B,,,- | B,,, !>!G,,,2!ff! !^!E,, | !^!=E,,!mf! !>!E,,2 !>!B,,,- | %36
 B,,, !>!G,,,2!ff! !>!E,, | !>!=E,,!mf! E,,2!ff! !>!E, | !>!=E,!mf! B,,2!ff! ._E, | %39
 ._C,.B,, .C,.B,, | ._C,.B,, !>!G, z |!ff! !>!E, z z2 | .A,.A, !>!A, z | !>!A,,(E,/=D,/ .E,).E, | %44
 .A,,.B,, .C,.E,, | z E,, z E,, | z E,, z E,, | z E,, z E,, | z .E,, !>!E,, z | !>!E, z z2 | %50
 .A,.A, !>!A, z | !>!A,,(E,/=D,/ .E,).E, | .A,,.B,, .C,.E,, | z E,, z E,, | z E,, z E,, | %55
 z E,, z E,, | z E, z E, |!fff! !>!B,2 !>!A,2 | !>!G,2 !>!B,2 | !>!C2 !>!B,2 | !>!A,2 !>!C2 | %61
 !>!B,2 !>!G,2 | !>!F,2 !>!A,2 | !>!B,2 !>!G,2 | !>!F,2 !>!A,2 | !>!B,2 !>!A,2 | !>!B,2 !>!A,2 | %67
 !>!B,2 !>!A,2 | .B,.B, !>!E, z |] %69
V:4
!f! !>!A,, z z2 | z4 | !>!A,, z z2 | .F,,.G,, .A,,.A,,, | z A,,, z A,,, | z A,,, z A,,, | %6
 z A,,, z A,,, | z .A,,, !>!A,,, z | !>!A,, z z2 | z4 | !>!A,, z z2 | .F,,.G,, .A,,.A,,, | %12
 z A,,, z A,,, | z A,,, z A,,, | z A,,, z A,,, |1 z .D,, .A,,, z :|2 z .D,, .A,, z || %17
!ff! .E,(E,/=D,/ .E,)._D, | !>!C,2 !>!F,,2 | .B,,(B,,/=A,,/ .B,,)._A,, | !>!G,,2 !>!C,,2 | %21
 !>!F,,>E,, !>!G,,>F,, | !>!A,,>G,, !>!=A,,>F,, |!mf! .B,,.F, .=D,.D, | .E,.E, .F,.F, | %25
!ff! .E,(E,/=D,/ .E,)._D, | !>!C,2 !>!F,,2 | .B,,(B,,/=A,,/ .B,,)._A,, | !>!G,,2 !>!C,,2 | %29
 !>!F,,>E,, !>!G,,>F,, | !>!A,,>G,, !>!=A,,>F,, | !>!B,,>A,, !>!C,>B,, | !>!=D,>C, !>!E,!ff!!^!E, | %33
 !^!=E,!mf! !>!B,,2 !>!F,- | F, !>!G,2!ff! !^!E, | !^!=E,!mf! !>!B,,2 !>!F,- | %36
 F, !>!G,2!ff! !>!E, | !>!=E,!mf! B,,2!ff! !>!E,, | !>!=E,,!mf! E,,2!ff! ._E,, | %39
 ._F,,.E,, .F,,.E,, | ._F,,.E,, !>!E,, z |!ff! !>!A,,, z z2 | z4 | !>!A,,, z z2 | %44
 .F,,.G,, .A,,.A,,, | z A,,, z A,,, | z A,,, z A,,, | z A,,, z A,,, | z .A,,, !>!A,,, z | %49
 !>!A,, z z2 | z4 | !>!A,,, z z2 | .F,,.G,, .A,,.A,,, | z A,,, z A,,, | z A,,, z A,,, | %55
 z A,,, z A,,, | z A,,, z A,,, | z!fff! A,,, z A,,, | z A,,, z A,,, | z A,,, z A,,, | %60
 z A,,, z A,,, | z A,,, z A,,, | z A,,, z A,,, | z A,,, z A,,, | z A,,, z A,,, | z A,,, z A,,, | %66
 z A,,, z A,,, | z A,,, z A,,, | z .A,,, !>!A,,, z |] %69

